; G-Code generated by Simplify3D(R) Version 4.1.1
; Apr 25, 2022 at 6:36:07 PM
; Settings Summary
;   processName,Process1
;   applyToModels,Excavadora_de_Ovejas_25
;   profileName,Witbox (modified)
;   profileVersion,2021-04-29 20:26:55
;   baseProfile,Default
;   printMaterial,PLA
;   printQuality,Medium
;   printExtruders,
;   extruderName,Extruder 1
;   extruderToolheadNumber,0
;   extruderDiameter,0.4
;   extruderAutoWidth,0
;   extruderWidth,0.35
;   extrusionMultiplier,1.02
;   extruderUseRetract,1
;   extruderRetractionDistance,3
;   extruderExtraRestartDistance,0
;   extruderRetractionZLift,0
;   extruderRetractionSpeed,1800
;   extruderUseCoasting,0
;   extruderCoastingDistance,0.2
;   extruderUseWipe,0
;   extruderWipeDistance,5
;   primaryExtruder,0
;   layerHeight,0.2
;   topSolidLayers,2
;   bottomSolidLayers,2
;   perimeterOutlines,3
;   printPerimetersInsideOut,1
;   startPointOption,2
;   startPointOriginX,0
;   startPointOriginY,0
;   sequentialIslands,0
;   spiralVaseMode,0
;   firstLayerHeightPercentage,100
;   firstLayerWidthPercentage,100
;   firstLayerUnderspeed,0.5
;   useRaft,0
;   raftExtruder,0
;   raftTopLayers,3
;   raftBaseLayers,2
;   raftOffset,3
;   raftSeparationDistance,0.14
;   raftTopInfill,100
;   aboveRaftSpeedMultiplier,0.3
;   useSkirt,1
;   skirtExtruder,0
;   skirtLayers,1
;   skirtOutlines,2
;   skirtOffset,4
;   usePrimePillar,0
;   primePillarExtruder,999
;   primePillarWidth,12
;   primePillarLocation,7
;   primePillarSpeedMultiplier,1
;   useOozeShield,0
;   oozeShieldExtruder,999
;   oozeShieldOffset,2
;   oozeShieldOutlines,1
;   oozeShieldSidewallShape,1
;   oozeShieldSidewallAngle,30
;   oozeShieldSpeedMultiplier,1
;   infillExtruder,0
;   internalInfillPattern,Grid
;   externalInfillPattern,Rectilinear
;   infillPercentage,10
;   outlineOverlapPercentage,25
;   infillExtrusionWidthPercentage,100
;   minInfillLength,5
;   infillLayerInterval,1
;   internalInfillAngles,45,-45
;   overlapInternalInfillAngles,1
;   externalInfillAngles,45,-45
;   generateSupport,1
;   supportExtruder,0
;   supportInfillPercentage,15
;   supportExtraInflation,0
;   supportBaseLayers,0
;   denseSupportExtruder,0
;   denseSupportLayers,0
;   denseSupportInfillPercentage,30
;   supportLayerInterval,1
;   supportHorizontalPartOffset,0.3
;   supportUpperSeparationLayers,1
;   supportLowerSeparationLayers,1
;   supportType,0
;   supportGridSpacing,5
;   maxOverhangAngle,45
;   supportAngles,30
;   temperatureName,Extruder 1 Temperature
;   temperatureNumber,0
;   temperatureSetpointCount,1
;   temperatureSetpointLayers,1
;   temperatureSetpointTemperatures,210
;   temperatureStabilizeAtStartup,1
;   temperatureHeatedBed,0
;   fanLayers,1,2
;   fanSpeeds,0,100
;   blipFanToFullPower,0
;   adjustSpeedForCooling,1
;   minSpeedLayerTime,15
;   minCoolingSpeedSlowdown,20
;   increaseFanForCooling,0
;   minFanLayerTime,45
;   maxCoolingFanSpeed,100
;   increaseFanForBridging,0
;   bridgingFanSpeed,100
;   use5D,1
;   relativeEdistances,0
;   allowEaxisZeroing,1
;   independentExtruderAxes,0
;   includeM10123,0
;   stickySupport,1
;   applyToolheadOffsets,0
;   gcodeXoffset,0
;   gcodeYoffset,0
;   gcodeZoffset,0
;   overrideMachineDefinition,1
;   machineTypeOverride,0
;   strokeXoverride,300
;   strokeYoverride,200
;   strokeZoverride,200
;   originOffsetXoverride,0
;   originOffsetYoverride,0
;   originOffsetZoverride,0
;   homeXdirOverride,-1
;   homeYdirOverride,-1
;   homeZdirOverride,-1
;   flipXoverride,1
;   flipYoverride,-1
;   flipZoverride,1
;   toolheadOffsets,0,0|0,0|0,0|0,0|0,0|0,0
;   overrideFirmwareConfiguration,1
;   firmwareTypeOverride,RepRap (Marlin/Repetier/Sprinter)
;   GPXconfigOverride,r2
;   baudRateOverride,115200
;   overridePrinterModels,0
;   printerModelsOverride
;   startingGcode,G28 ; home all axes,G1 Z5.0 F1200 ;move the platform down 15mm,G92 E0                  ;zero the extruded length,G1 F200 E4              ;extrude 1mm of feed stock,G92 E0                  ;zero the extruded length again,G1 F{travel_speed},;Put printing message on LCD screen,M117 Imprimiendo...,; -- end of START GCODE --
;   layerChangeGcode,
;   retractionGcode,
;   toolChangeGcode,
;   endingGcode,M104 S0 ; turn off extruder,M140 S0 ; turn off bed,G91                                    ;relative positioning,G1 E-2 F400                            ;retract the filament a bit before lifting the nozzle, to release some of the pressure,G1 Z+2 F{travel_speed} ;move Z up,G90                     ;absolute positioning,G1 X0 Y180 F{travel_speed} ;move Z up a bit and retract filament even more the way,M84 ; disable motors
;   exportFileFormat,gcode
;   celebration,0
;   celebrationSong,Take On Me
;   postProcessing,
;   defaultSpeed,3600
;   outlineUnderspeed,0.5
;   solidInfillUnderspeed,0.8
;   supportUnderspeed,0.8
;   rapidXYspeed,4800
;   rapidZspeed,1000
;   minBridgingArea,50
;   bridgingExtraInflation,0
;   bridgingExtrusionMultiplier,1
;   bridgingSpeedMultiplier,1
;   useFixedBridgingAngle,0
;   fixedBridgingAngle,0
;   applyBridgingToPerimeters,0
;   filamentDiameters,1.75|1.75|1.75|1.75|1.75|1.75
;   filamentPricesPerKg,19|19|19|19|19|19
;   filamentDensities,1.25|1.25|1.25|1.25|1.25|1.25
;   useMinPrintHeight,0
;   minPrintHeight,0
;   useMaxPrintHeight,0
;   maxPrintHeight,0
;   useDiaphragm,0
;   diaphragmLayerInterval,20
;   robustSlicing,1
;   mergeAllIntoSolid,0
;   onlyRetractWhenCrossingOutline,1
;   retractBetweenLayers,1
;   useRetractionMinTravel,0
;   retractionMinTravel,3
;   retractWhileWiping,0
;   onlyWipeOutlines,1
;   avoidCrossingOutline,0
;   maxMovementDetourFactor,3
;   toolChangeRetractionDistance,12
;   toolChangeExtraRestartDistance,-0.5
;   toolChangeRetractionSpeed,600
;   externalThinWallType,0
;   internalThinWallType,2
;   thinWallAllowedOverlapPercentage,10
;   singleExtrusionMinLength,1
;   singleExtrusionMinPrintingWidthPercentage,50
;   singleExtrusionMaxPrintingWidthPercentage,200
;   singleExtrusionEndpointExtension,0.2
;   horizontalSizeCompensation,0
G90
M82
M106 S0
M104 S210 T0
M109 S210 T0
G28 ; home all axes
G1 Z5.0 F1200 ;move the platform down 15mm
G92 E0                  ;zero the extruded length
G1 F200 E4              ;extrude 1mm of feed stock
G92 E0                  ;zero the extruded length again
G1 F{travel_speed}
;Put printing message on LCD screen
M117 Imprimiendo...
; -- end of START GCODE --
; process Process1
; layer 1, Z = 0.200
T0
G92 E0.0000
G1 E-3.0000 F1800
; feature skirt
; tool H0.200 W0.350
G1 Z0.200 F1000
G1 X55.478 Y55.625 F4800
G1 E0.0000 F1800
G92 E0.0000
G1 X58.129 Y52.975 E0.1113 F1800
G1 X61.903 Y52.975 E0.2233
G1 X64.003 Y54.187 E0.2953
G1 X67.217 Y59.753 E0.4861
G1 X67.525 Y60.904 E0.5215
G1 X67.525 Y94.429 E1.5166
G1 X67.558 Y95.467 E1.5475
G1 X67.649 Y96.440 E1.5765
G1 X67.801 Y97.399 E1.6053
G1 X68.013 Y98.348 E1.6341
G1 X68.284 Y99.281 E1.6630
G1 X68.614 Y100.196 E1.6919
G1 X69.000 Y101.088 E1.7207
G1 X69.441 Y101.954 E1.7496
G1 X69.936 Y102.791 E1.7784
G1 X70.482 Y103.595 E1.8073
G1 X71.078 Y104.363 E1.8361
G1 X71.721 Y105.092 E1.8650
G1 X72.408 Y105.779 E1.8938
G1 X73.137 Y106.422 E1.9227
G1 X73.905 Y107.018 E1.9515
G1 X74.709 Y107.564 E1.9804
G1 X75.546 Y108.059 E2.0092
G1 X76.412 Y108.500 E2.0381
G1 X77.304 Y108.886 E2.0670
G1 X78.219 Y109.215 E2.0958
G1 X79.152 Y109.487 E2.1247
G1 X80.101 Y109.699 E2.1535
G1 X81.061 Y109.851 E2.1824
G1 X82.029 Y109.942 E2.2112
G1 X83.071 Y109.975 E2.2422
G1 X125.191 Y109.975 E3.4925
G1 X125.780 Y109.949 E3.5100
G1 X126.263 Y109.884 E3.5245
G1 X126.739 Y109.776 E3.5390
G1 X127.204 Y109.626 E3.5535
G1 X127.653 Y109.435 E3.5679
G1 X128.083 Y109.205 E3.5824
G1 X128.491 Y108.938 E3.5969
G1 X128.874 Y108.635 E3.6114
G1 X129.228 Y108.300 E3.6259
G1 X129.551 Y107.934 E3.6404
G1 X129.840 Y107.541 E3.6548
G1 X130.093 Y107.124 E3.6693
G1 X130.307 Y106.685 E3.6838
G1 X130.518 Y106.136 E3.7013
G1 X139.425 Y79.417 E4.5373
G1 X147.025 Y80.650 E4.7659
G1 X147.025 Y97.975 E5.2802
G1 X152.975 Y97.975 E5.4568
G1 X152.975 Y80.650 E5.9711
G1 X160.575 Y79.417 E6.1997
G1 X169.482 Y106.136 E7.0357
G1 X169.693 Y106.685 E7.0532
G1 X169.907 Y107.124 E7.0677
G1 X170.160 Y107.541 E7.0821
G1 X170.449 Y107.934 E7.0966
G1 X170.772 Y108.300 E7.1111
G1 X171.126 Y108.635 E7.1256
G1 X171.509 Y108.938 E7.1401
G1 X171.917 Y109.205 E7.1546
G1 X172.347 Y109.435 E7.1690
G1 X172.796 Y109.626 E7.1835
G1 X173.261 Y109.776 E7.1980
G1 X173.737 Y109.884 E7.2125
G1 X174.220 Y109.949 E7.2270
G1 X174.809 Y109.975 E7.2445
G1 X216.929 Y109.975 E8.4948
G1 X217.971 Y109.942 E8.5258
G1 X218.939 Y109.851 E8.5546
G1 X219.899 Y109.699 E8.5835
G1 X220.848 Y109.487 E8.6123
G1 X221.781 Y109.215 E8.6412
G1 X222.696 Y108.886 E8.6700
G1 X223.588 Y108.500 E8.6989
G1 X224.454 Y108.059 E8.7277
G1 X225.291 Y107.564 E8.7566
G1 X226.095 Y107.018 E8.7854
G1 X226.863 Y106.422 E8.8143
G1 X227.592 Y105.779 E8.8432
G1 X228.279 Y105.092 E8.8720
G1 X228.922 Y104.363 E8.9009
G1 X229.518 Y103.595 E8.9297
G1 X230.064 Y102.791 E8.9586
G1 X230.559 Y101.954 E8.9874
G1 X231.000 Y101.088 E9.0163
G1 X231.386 Y100.196 E9.0451
G1 X231.715 Y99.281 E9.0740
G1 X231.987 Y98.348 E9.1028
G1 X232.199 Y97.399 E9.1317
G1 X232.351 Y96.439 E9.1605
G1 X232.442 Y95.471 E9.1894
G1 X232.475 Y94.429 E9.2204
G1 X232.475 Y60.904 E10.2155
G1 X232.783 Y59.753 E10.2509
G1 X235.997 Y54.187 E10.4417
G1 X238.097 Y52.975 E10.5137
G1 X241.874 Y52.975 E10.6258
G1 X244.525 Y55.626 E10.7371
G1 X244.525 Y97.536 E11.9812
G1 X244.524 Y97.607 E11.9833
G1 X244.481 Y98.969 E12.0237
G1 X244.472 Y99.111 E12.0280
G1 X244.340 Y100.503 E12.0695
G1 X244.323 Y100.644 E12.0737
G1 X244.104 Y102.026 E12.1152
G1 X244.077 Y102.165 E12.1194
G1 X243.772 Y103.530 E12.1609
G1 X243.737 Y103.668 E12.1652
G1 X243.347 Y105.011 E12.2067
G1 X243.303 Y105.146 E12.2109
G1 X242.829 Y106.462 E12.2524
G1 X242.777 Y106.594 E12.2566
G1 X242.221 Y107.878 E12.2982
G1 X242.161 Y108.007 E12.3024
G1 X241.526 Y109.253 E12.3439
G1 X241.457 Y109.377 E12.3481
G1 X240.745 Y110.581 E12.3896
G1 X240.669 Y110.701 E12.3938
G1 X239.883 Y111.858 E12.4354
G1 X239.799 Y111.973 E12.4396
G1 X238.942 Y113.078 E12.4811
G1 X238.852 Y113.188 E12.4853
G1 X237.927 Y114.237 E12.5268
G1 X237.829 Y114.340 E12.5311
G1 X236.840 Y115.329 E12.5726
G1 X236.737 Y115.427 E12.5768
G1 X235.688 Y116.352 E12.6183
G1 X235.578 Y116.442 E12.6225
G1 X234.473 Y117.299 E12.6640
G1 X234.358 Y117.383 E12.6683
G1 X233.201 Y118.169 E12.7098
G1 X233.081 Y118.245 E12.7140
G1 X231.877 Y118.957 E12.7555
G1 X231.753 Y119.026 E12.7597
G1 X230.507 Y119.661 E12.8013
G1 X230.378 Y119.721 E12.8055
G1 X229.094 Y120.277 E12.8470
G1 X228.962 Y120.329 E12.8512
G1 X227.646 Y120.803 E12.8927
G1 X227.511 Y120.847 E12.8970
G1 X226.168 Y121.237 E12.9385
G1 X226.030 Y121.272 E12.9427
G1 X224.665 Y121.577 E12.9842
G1 X224.526 Y121.604 E12.9884
G1 X223.144 Y121.823 E13.0299
G1 X223.003 Y121.841 E13.0342
G1 X221.611 Y121.972 E13.0757
G1 X221.469 Y121.981 E13.0799
G1 X220.107 Y122.024 E13.1204
G1 X220.036 Y122.025 E13.1225
G1 X185.137 Y122.025 E14.1584
G1 X184.944 Y122.037 E14.1642
G1 X184.888 Y122.047 E14.1659
G1 X184.834 Y122.064 E14.1675
G1 X184.785 Y122.086 E14.1691
G1 X184.734 Y122.117 E14.1709
G1 X184.690 Y122.151 E14.1725
G1 X184.650 Y122.192 E14.1743
G1 X184.618 Y122.232 E14.1758
G1 X184.586 Y122.285 E14.1776
G1 X184.563 Y122.335 E14.1792
G1 X184.546 Y122.390 E14.1809
G1 X184.537 Y122.440 E14.1825
G1 X184.525 Y122.638 E14.1884
G1 X184.525 Y137.568 E14.6316
G1 X184.521 Y137.705 E14.6356
G1 X184.472 Y138.512 E14.6596
G1 X184.439 Y138.784 E14.6677
G1 X184.281 Y139.647 E14.6938
G1 X184.215 Y139.912 E14.7019
G1 X183.955 Y140.750 E14.7279
G1 X183.858 Y141.005 E14.7361
G1 X183.498 Y141.805 E14.7621
G1 X183.370 Y142.048 E14.7702
G1 X182.917 Y142.798 E14.7963
G1 X182.761 Y143.023 E14.8044
G1 X182.220 Y143.714 E14.8304
G1 X182.039 Y143.919 E14.8385
G1 X181.419 Y144.539 E14.8646
G1 X181.214 Y144.720 E14.8727
G1 X180.523 Y145.261 E14.8987
G1 X180.298 Y145.417 E14.9069
G1 X179.548 Y145.870 E14.9329
G1 X179.305 Y145.998 E14.9410
G1 X178.505 Y146.358 E14.9671
G1 X178.250 Y146.455 E14.9752
G1 X177.412 Y146.715 E15.0012
G1 X177.147 Y146.781 E15.0093
G1 X176.284 Y146.939 E15.0354
G1 X176.012 Y146.972 E15.0435
G1 X175.137 Y147.025 E15.0695
G1 X174.863 Y147.025 E15.0776
G1 X173.988 Y146.972 E15.1037
G1 X173.716 Y146.939 E15.1118
G1 X172.853 Y146.781 E15.1378
G1 X172.588 Y146.715 E15.1460
G1 X171.750 Y146.455 E15.1720
G1 X171.495 Y146.358 E15.1801
G1 X170.695 Y145.998 E15.2062
G1 X170.452 Y145.870 E15.2143
G1 X169.702 Y145.417 E15.2403
G1 X169.477 Y145.261 E15.2484
G1 X168.786 Y144.720 E15.2745
G1 X168.581 Y144.539 E15.2826
G1 X167.961 Y143.919 E15.3086
G1 X167.780 Y143.714 E15.3168
G1 X167.239 Y143.023 E15.3428
G1 X167.083 Y142.798 E15.3509
G1 X166.630 Y142.048 E15.3770
G1 X166.502 Y141.805 E15.3851
G1 X166.142 Y141.005 E15.4111
G1 X166.045 Y140.750 E15.4192
G1 X165.784 Y139.912 E15.4453
G1 X165.719 Y139.647 E15.4534
G1 X165.561 Y138.784 E15.4794
G1 X165.528 Y138.512 E15.4875
G1 X165.479 Y137.705 E15.5116
G1 X165.475 Y137.568 E15.5156
G1 X165.475 Y122.636 E15.9589
G1 X165.464 Y122.447 E15.9645
G1 X165.453 Y122.387 E15.9663
G1 X165.437 Y122.335 E15.9679
G1 X165.414 Y122.285 E15.9695
G1 X165.383 Y122.234 E15.9713
G1 X165.348 Y122.189 E15.9730
G1 X165.311 Y122.152 E15.9746
G1 X165.266 Y122.117 E15.9763
G1 X165.215 Y122.086 E15.9780
G1 X165.173 Y122.067 E15.9794
G1 X165.104 Y122.045 E15.9816
G1 X165.056 Y122.037 E15.9830
G1 X164.863 Y122.025 E15.9887
G1 X157.314 Y122.025 E16.2128
G1 X157.094 Y122.245 E16.2221
G1 X140.926 Y122.245 E16.7020
G1 X140.706 Y122.025 E16.7113
G1 X135.137 Y122.025 E16.8766
G1 X134.944 Y122.037 E16.8823
G1 X134.888 Y122.047 E16.8840
G1 X134.835 Y122.064 E16.8856
G1 X134.783 Y122.087 E16.8873
G1 X134.735 Y122.116 E16.8890
G1 X134.690 Y122.151 E16.8907
G1 X134.653 Y122.188 E16.8922
G1 X134.614 Y122.238 E16.8941
G1 X134.585 Y122.285 E16.8958
G1 X134.567 Y122.327 E16.8971
G1 X134.546 Y122.392 E16.8991
G1 X134.536 Y122.447 E16.9008
G1 X134.525 Y122.636 E16.9064
G1 X134.525 Y137.568 E17.3497
G1 X134.521 Y137.705 E17.3537
G1 X134.472 Y138.512 E17.3778
G1 X134.439 Y138.784 E17.3859
G1 X134.281 Y139.647 E17.4119
G1 X134.215 Y139.912 E17.4200
G1 X133.955 Y140.750 E17.4461
G1 X133.858 Y141.005 E17.4542
G1 X133.498 Y141.805 E17.4802
G1 X133.370 Y142.048 E17.4883
G1 X132.917 Y142.798 E17.5144
G1 X132.761 Y143.023 E17.5225
G1 X132.220 Y143.714 E17.5485
G1 X132.039 Y143.919 E17.5567
G1 X131.419 Y144.539 E17.5827
G1 X131.214 Y144.720 E17.5908
G1 X130.523 Y145.261 E17.6169
G1 X130.298 Y145.417 E17.6250
G1 X129.548 Y145.870 E17.6510
G1 X129.305 Y145.998 E17.6591
G1 X128.505 Y146.358 E17.6852
G1 X128.250 Y146.455 E17.6933
G1 X127.412 Y146.715 E17.7193
G1 X127.147 Y146.781 E17.7275
G1 X126.284 Y146.939 E17.7535
G1 X126.012 Y146.972 E17.7616
G1 X125.137 Y147.025 E17.7877
G1 X124.863 Y147.025 E17.7958
G1 X123.988 Y146.972 E17.8218
G1 X123.716 Y146.939 E17.8299
G1 X122.853 Y146.781 E17.8560
G1 X122.588 Y146.715 E17.8641
G1 X121.750 Y146.455 E17.8901
G1 X121.495 Y146.358 E17.8982
G1 X120.695 Y145.998 E17.9243
G1 X120.452 Y145.870 E17.9324
G1 X119.702 Y145.417 E17.9584
G1 X119.477 Y145.261 E17.9666
G1 X118.786 Y144.720 E17.9926
G1 X118.581 Y144.539 E18.0007
G1 X117.961 Y143.919 E18.0268
G1 X117.780 Y143.714 E18.0349
G1 X117.239 Y143.023 E18.0609
G1 X117.083 Y142.798 E18.0690
G1 X116.630 Y142.048 E18.0951
G1 X116.502 Y141.805 E18.1032
G1 X116.142 Y141.005 E18.1292
G1 X116.045 Y140.750 E18.1374
G1 X115.784 Y139.912 E18.1634
G1 X115.719 Y139.647 E18.1715
G1 X115.561 Y138.784 E18.1976
G1 X115.528 Y138.512 E18.2057
G1 X115.479 Y137.705 E18.2297
G1 X115.475 Y137.568 E18.2337
G1 X115.475 Y122.638 E18.6769
G1 X115.463 Y122.440 E18.6828
G1 X115.454 Y122.390 E18.6843
G1 X115.437 Y122.335 E18.6861
G1 X115.415 Y122.287 E18.6876
G1 X115.382 Y122.232 E18.6895
G1 X115.349 Y122.190 E18.6911
G1 X115.310 Y122.151 E18.6927
G1 X115.265 Y122.116 E18.6944
G1 X115.217 Y122.087 E18.6961
G1 X115.165 Y122.064 E18.6978
G1 X115.112 Y122.047 E18.6994
G1 X115.056 Y122.037 E18.7011
G1 X114.863 Y122.025 E18.7069
